-----BEGIN PGP PUBLIC KEY BLOCK-----

mQINBGqGt+IBEADY9QzaEloVmxebNQAWyvERlvdIOco7A3oTfV3r9K6KZdGlnHgv
c0Xc2LFxgurDe438ihOt/vY95t44iMyK8sVekJAMoeJhtyEi2mxR1BWrldxGHMmc
45JbzXcfTyS28XklMoUEc6ZSL+ARY2aRBvnDpwKjrM3hVPcYaG5OD7+nQfOt+1aj
ZugUYR1DCWvTy/GkdRGgM+VX4QDG1W1MaUIfKcyxcyHk2G1Tt5J/YZYcJnxPmOkJ
XTTIfCSAmXkV+mhY/1o7yYj34wE+haDkbEYURSS7AWkhmc04HTcn8P/hd181n7BR
F8S+TPILUiLWDH+8A95CQhKowFYAtvP4tFtRyvCgbktpLs68dIDQ7ghuOZI/I+dt
c5Agbnvu/1bT+DZ6Yelihb2dVM81JscKS4wsRRcxgb6y7V5wunYwJvvQpth33UID
hBmSEKBzJnG390D0OMKEUz2rRjPY0ak5FS3JthCr0IA7HcHXEfBboEfgAoseHj4x
Sk1CB2hO3gnAAdDq5WX4tLsGq289AzzQ7U77mMKa3fK3L2iPgRkz67CUdZSuuccq
21RfhJUtiamq4OUkk43aBvyLKMlha1zj4uq3yDd2PvBhK7PbVt+1n6qznYIqlD1f
e75IYyIbM3mB1sVZGiSsZiODhlpOiXbigLcKH6bzhmlWkzdnoHBjzYDefwARAQAB
tD1jb2RlbGlmdCBBUFQgcmVwb3NpdG9yeSBzaWduaW5nIGtleSA8dGFuaW5Ab3Bl
bnJlZmFjdG9yeS5jb20+iQJtBBMBCABXFiEEaCHX4AXRdXja3SHp3Fv9FWAgsZEF
AmqGt+IbFIAAAAAABAAObWFudTIsMi41KzEuMTIsMCwyAhsDBQsJCAcCAiICBhUK
CQgLAgQWAgMBAh4HAheAAAoJENxb/RVgILGRNg4QAKnny807LZ9phv95xPN4JecX
s2rdlhbQZwaivJ0g72otqesc8Yb404TfRX9dpz9idhXieZDDKNcT7/IUp5XUwoWM
YqQ7T02q8seOTXz9ivg+3ftfeEpUsl0F9zCARb9nG0iUC2mzs5DzgfcD244W7eLP
wMpUhEEOkh0J5hwPZ8t2QoJHOaKu0D8LbXejq9VaxanwKgsjFQ7Hr4D9L5a1B97q
HBXhAHnjAlbu7vLE9nSNaygwgnVMozsNW434WSL/Id0Bun1oD8YH8CJ3FgdhEMle
kvBQ0x7IpTs4hiRHLYL9ioe+/R9SoOA5uxHLsGQEzEztSqnE91rl6bZj4X8XO8pn
BZNbhrRg6GTaRQY2CfK7NZurQGoPVNpjDtEeXv5xnPlv5EfObQWUW/6WXe48yM2+
tUmVq+h0/YS19L54pCyHCRyOXY9FCY0nuQmjklcpSXB9CMblb7ix0fFcP37mjib4
tv3321kryfxpWR7Cxl4VW3ve3ADK/CZTwjuEAK7kQV59L2z08Y9Jiot7ED1mVdxk
P6w02KHOAM6bnU2rD7mR27ypWq+yqUp/9mUUGD1Otn3wBFGdzLehTYYJnPB6nC3R
VCVlbS4E4SBuv9BJkzCLFtqWIkuHHAeAzTUR24QXrMD3+8ldDX2s8o5LjtCdYuoP
O6mpLU5MjrgJLwC7Xuja
=pOie
-----END PGP PUBLIC KEY BLOCK-----
